X:77
T:Smash The Windows
O:Dance
S:John Moore's Book 2
Z:Transcribed by Peter Kanssen 2-05-21
%%VWML: Moore1-4494-p60-0
F:http://www.vwml.org/record/Moore2/4494/p60
M:6/8
K:D
L:1/8
|:DED F2A | d2f ecA | G2B F2A | E2F GFE | 
DED F2A | d2f ecA | fga ABc | d2f d2:|
|:f| a2fd2A | F2a agf | g2e c2A | E2g gfe |
f2d g2e | a2f b2g | fed ABc | d2fd2:|
T:Dance
%this is how it is in MS - but right justified
M:6/8
d/c/!segno!|:B2d A2d | (BAB) G2B | (AGA) E2F | G2B A2 d/c/ |
 B2d A2d | (BA)B G2B | (AG)A E2F | G3G2:|
|:d | e2c g2g | g3-gfe | d2B G2B | B2c/B/ A2 d | 
ecg g2g | g3-gfe | d2B G2B | Hd3 Hd2 c!segno!:|

